X: 1344
T: Meclise Gel Gönlüm Eyle
C: Tanburî Mustafa Çavuş
O: Turkey
F: http://compmusic.upf.edu/node/140
N: beyati--sarki--aksak--meclise_gel--tanburi_mustafa_cavus
N: makam= beyati
N: form= sarki
N: usul= aksak = 9/8
M: 9/8
L: 1/16
K: C _2/4B   
Q: 1/4=132
%%MIDI tuningsystem comma53
z4 c2B2 A2z2 d2c2 B2 | A2 z2d2 c2d2 z2g2 f2e2  | \
w:   |   | 
a2z2 g2f2 e2d2 e4 c2 | 
w:   | 
d6 g2^f2 g2a4b2  | z4 {d'}c'2b2 z4 a4 g2 | \
w:   |   | 
z4{g}f2 e2z4d4c2  | B3f e2d2 c2B2 B4 A2 | 
w:   |   | 
A2 z2G2 A2A4{a}g2 f2e2  | {f}e2d2 d2c2 c2B2 dc{e}d2 cB | \
w:  *  Mec li se  *  gel   |  *  gön *  lüm  *  ey *  le  *  *  *  a  | 
A2 z2e2 f2f2 e2ag fed2  | 
w:  man   Me ra mı *  mız   | 
c2B2 {f}e2d2 c2B2 A4 G2 | A4B2 c2ed cBA4^f2  | \
w:  an *  *  *  *  cak  *  cil  |  ve  *  *  *  *  *  *  *  ah    | 
g2z2 g2g2 g4 _b2a2 g2 | 
w:  *  Ya na ğın da   | 
g2 ^f2f2 _7/8e2e2 d2gf edcB  | c2z2 B2c2 d4 _7/8e4 d2 | \
w:  o *  lan  *  be *  ne  *  *  *  a  |  man   Ne  is ter sin   | 
^fg a4 g2f2 _7/8e2e4d2  | 
w:  doğ *  *  *  ru  *  söy  | 
d_7/8e^fg a2gf feed d4 fg | a2 z2g2 a2a2 d'2a2 g2f2  | 
w:  le  *  *  *  *  a *  man  *  a *  man  ah    |  *  Al da nır *  sam   | 
{g}f4 f2e2 e2d2 e4 dc | c2 z2f2 f2f2 e2g2 f2e2  | \
w:  *  u ğur  *  ol *  sun   |  ah   O  ru yi  *  ben   | 
e2d2 d2c2 e2d2 fed2 cB | 
w:  be *  nim  *  ol *  sun    | 
A2 z2B2 c2d2 e2ag fedc  | c2B2 {f}e2d2 c3B ABc2 BA | 
w:  *  Gü zel  ben *  den   |  yüz  *  *  *  *  çe *  vir  | 
A2 z2c2 B2A2 z2d2 c2B2  | A2z2 d2c2 d2z2 g2f2 e2 | \
w:  me    |   | 
a2 z2g2 f2e2 d2e4c2  | 
w:   | 
d6g2 ^f2g2 a4 b2 | z4{d'}c'2 b2z4a4g2  | \
w:   |   | 
z4 {g}f2e2 z4 d4 c2 | B3fe2 d2c2 B2B4A2  | 
w:   |   | 
A6z2 z8 z2 | |


